X: 3357
M: C
L: 1/8
K: F	% and Dm
ud>ue |\
vf>vduc>uA F>cA>c | c2G>c E>cG>c |\
f>dc>A  F>cA>c | G>Af>g a>gf>e |\
f>dc>A  F>cA>c |
E>cG>c E>cG>c |\
f>ed>c  d>cA>G | F>GE>F D2 ::\
d>^cd>e f>ef>g | a>ga>b a>gf>e |
d>^cd>e f>ef>g | a>gf>e d>cd>c |\
d>Ae>A  f>Ag>A | a>ga>b a>gf>e |\
f>ed>c  d>cA>G | F>GE>F D2 :|


